!!!COM: Palestrina, Giovanni Perluigi da
!!!OPR: Missa Je suis desheritee
!!!OTL: Credo
**kern	**kern	**kern	**kern
*Ibass	*Itenor	*Icalto	*Icant
!Bassus	!Tenor	!Altus	!Cantus
*clefF4	*clefGv2	*clefG2	*clefG2
*k[b-]	*k[b-]	*k[b-]	*k[b-]
*D:aeo	*D:aeo	*D:aeo	*D:aeo
*M4/2	*M4/2	*M4/2	*M4/2
=1	=1	=1	=1
0r	0r	1a	1r
.	.	2a	2r
.	.	2a	2a
=2	=2	=2	=2
0r	1A	2.cc	2a
.	.	.	2a
.	.	4b-	.
.	2A	4a	2.cc
.	.	4g	.
.	2A	[2a	.
.	.	.	4dd
=3	=3	=3	=3
0r	2c	2a]	4ee
.	.	.	4ff
.	2c	2g	1ee
.	1d	2.f	.
.	.	.	[2dd
.	.	8e	.
.	.	8d	.
=4	=4	=4	=4
1r	1A	1e	2dd]
.	.	.	2cc#
1D	2r	1d	2.dd
.	2d	.	.
.	.	.	8cc
.	.	.	8b-
=5	=5	=5	=5
2D	2d	2r	1a
2D	2d	2a	.
1F	1c	2a	1r
.	.	2a	.
=6	=6	=6	=6
2G	1B-	1g	0r
2G	.	.	.
4D	2A	2f	.
4E	.	.	.
4F	[2d	2f	.
4G	.	.	.
=7	=7	=7	=7
1A	4d]	1e	1.a
.	4c#	.	.
.	2c#	.	.
[1D	2d	2f	.
.	[2f	[2d	2a
=8	=8	=8	=8
1D]	2f]	2d]	2.a
.	2d	2f	.
.	.	.	4a
1r	2e	2g	1cc
.	2f	2a	.
=9	=9	=9	=9
1r	2B-	2d	2dd
.	1d	1f	2dd
2r	.	.	[1a
[2A	2c	2e	.
=10	=10	=10	=10
2A]	2c	2e	1a]
2A	2f	1a	.
2c	2f	.	1r
2c	[2e	2g	.
=11	=11	=11	=11
2d	4e]	2.f	2r
.	4d	.	.
2d	1d	.	2ff
.	.	4g	.
1A	.	2a	2ff
.	2c#	2a	[2ee
=12	=12	=12	=12
0r	2.d	2.f	4ee]
.	.	.	4dd
.	.	.	1dd
.	8c	4f	.
.	8B-	.	.
.	1A	1e	.
.	.	.	2cc#
=13	=13	=13	=13
2.D	2r	2r	1dd
.	1f	1a	.
4E	.	.	.
4F	.	.	2r
4G	.	.	.
4A	2f	2a	[2cc
4B-	.	.	.
=14	=14	=14	=14
2c	2e	2g	2cc]
2A	2a	2cc	2cc
2B-	2g	2b-	2dd
2d	2f	2a	2ff
=15	=15	=15	=15
2c	1g	0cc	2ff
2c	.	.	2ee
1F	1a	.	1ff
=16	=16	=16	=16
0B-	0f	0b-	0dd
=17	=17	=17	=17
1G	1g	1b-	1dd
1A	2e	1a	1cc
.	[2f	.	.
=18	=18	=18	=18
0c	2f]	2g	1cc
.	4e	2.g	.
.	4d	.	.
.	1e	.	2r
.	.	4g	.
.	.	2g	[2cc
=19	=19	=19	=19
0r	2.f	2a	4cc]
.	.	.	4cc
.	.	2cc	2cc
.	4e	.	.
.	1d	2b-	2dd
.	.	2a	2ff
=20	=20	=20	=20
0r	0r	2.g	2ee
.	.	.	2dd
.	.	4f	.
.	.	2e	2cc
.	.	2d	[2dd
=21	=21	=21	=21
2r	0r	2.f	4dd]
.	.	.	4cc
1F	.	.	1cc
.	.	4e	.
.	.	1d	.
2G	.	.	2b
=22	=22	=22	=22
1A	2r	1c	4cc
.	.	.	4b-
.	1c	.	4a
.	.	.	4g
1F	.	2r	1a
.	2c	[2f	.
=23	=23	=23	=23
2.B-	2d	2f]	0r
.	1f	2f	.
4A	.	.	.
1G	.	2g	.
.	2e	2b-	.
=24	=24	=24	=24
1F	2f	1a	0r
.	1c	.	.
2r	.	[1a	.
[2F	2c	.	.
=25	=25	=25	=25
2F]	2d	1a]	0r
2F	2f	.	.
2G	4e	1r	.
.	4d	.	.
2B-	4d	.	.
.	8c	.	.
.	8B-	.	.
=26	=26	=26	=26
4A	2c	0r	0r
4G	.	.	.
4F	2.d	.	.
4E	.	.	.
1F	.	.	.
.	4c	.	.
.	[2c	.	.
=27	=27	=27	=27
2.D	2c]	2r	1r
.	2B	2f	.
4D	.	.	.
2C	1c	2e	2r
2c	.	2e	2cc
=28	=28	=28	=28
2G	1r	1d	2b-
2B-	.	.	2b-
1F	2r	1c	1a
.	2f	.	.
=29	=29	=29	=29
2c	2e	2r	1g
2c	2e	2cc	.
2G	1d	2b-	1r
2B-	.	2b-	.
=30	=30	=30	=30
2F	1c	2a	2r
2F	.	2a	2ff
1c	2r	2.g	2ee
.	2c	.	2ee
.	.	4a	.
=31	=31	=31	=31
0r	2G	4b-	2.dd
.	.	4cc	.
.	2B-	1b-	.
.	.	.	4ee
.	2F	.	4ff
.	.	.	4gg
.	2F	2a	[2ff
=32	=32	=32	=32
1r	1c	1g	2ff]
.	.	.	2ee
[1c	2r	2r	2ee
.	[2e	[2g	[2cc
=33	=33	=33	=33
2c]	2e]	2g]	2cc]
2F	2f	2a	2cc
1G	1d	1g	1b-
=34	=34	=34	=34
1A	2c	2e	1a
.	2c	2e	.
[1F	2.f	[1a	2r
.	.	.	2cc
.	4e	.	.
=35	=35	=35	=35
1F]	2d	1a]	2.ff
.	2c	.	.
.	.	.	4ee
2B-	2.d	2f	2dd
2B-	.	[2g	2dd
.	4e	.	.
=36	=36	=36	=36
2A	1f	4g]	2cc
.	.	4f	.
4G	.	1f	4b-
4F	.	.	4a
1G	2.B-	.	1b-
.	.	2e	.
.	4c	.	.
=37	=37	=37	=37
0F	2d	1f	2a
.	4c	.	1cc
.	4B-	.	.
.	1A	2r	.
.	.	[2f	2cc
=38	=38	=38	=38
0r	0r	2f]	2dd
.	.	2f	2ff
.	.	2a	1ee
.	.	2cc	.
=39	=39	=39	=39
0r	0r	1b-	1dd
.	.	1a	2r
.	.	.	2ff
=40	=40	=40	=40
0r	0r	2r	2ee
.	.	2b-	2dd
.	.	2a	2cc
.	.	2g	[2dd
=41	=41	=41	=41
0r	0r	2f	4dd]
.	.	.	4cc
.	.	2.g	4b-
.	.	.	4a
.	.	.	1b-
.	.	4f	.
.	.	4d	.
.	.	4e	.
=42	=42	=42	=42
0r	0r	2f	2a
.	.	2.f	2.b-
.	.	4f	4a
.	.	[2f	4a
.	.	.	8g
.	.	.	8f
=43	=43	=43	=43
1r	1.c	2f]	1g
.	.	2e	.
[1F	.	[1f	2a
.	2A	.	[2a
=44	=44	=44	=44
2F]	1d	1f]	2a]
2D	.	.	2a
2A	1c#	2r	2a
2A	.	[2a	2a
=45	=45	=45	=45
2.D	2d	2a]	2.f
.	2.f	2a	.
4E	.	.	4g
4F	.	2a	4a
4G	8e	.	4b-
.	8d	.	.
2A	2e	2a	2cc
=46	=46	=46	=46
2.B-	2d	2.f	2.dd
.	2.f	.	.
8A	.	4g	4ee
8G	.	.	.
4F	.	4a	2ff
4G	4e	4b-	.
4A	4c	2cc	[2ee
4B-	4d	.	.
=47	=47	=47	=47
2c	4e	2g	2ee]
.	4f	.	.
2G	2g	2b-	1dd
1A	1e	2.g	.
.	.	.	2cc#
.	.	4f	.
=48	=48	=48	=48
2r	1d	1.f	0dd
2D	.	.	.
2D	2r	.	.
2D	2A	4e	.
.	.	4d	.
=49	=49	=49	=49
1F	2A	1c	0r
.	2A	.	.
2E	2c	1r	.
2D	[2d	.	.
=50	=50	=50	=50
1E	2d]	1r	0r
.	2c#	.	.
1D	4d	2r	.
.	4e	.	.
.	4f	2d	.
.	4g	.	.
=51	=51	=51	=51
1r	2.f	2d	2r
.	.	2d	2a
.	4e	.	.
2r	2d	2f	2a
2A	2c	2e	2a
=52	=52	=52	=52
2A	2r	1a	2.cc
2A	2e	.	.
.	.	.	4dd
1c	2e	[1g	2ee
.	2e	.	2ee
=53	=53	=53	=53
2B-	2g	2g]	2dd
2A	2f	2a	2.ff
1B-	1d	1f	.
.	.	.	4ee
.	.	.	2dd
=54	=54	=54	=54
1A	1e	2r	4cc
.	.	.	4b-
.	.	2a	4a
.	.	.	4g
2r	1d	1a	2.f
2d	.	.	.
.	.	.	4g
=55	=55	=55	=55
1d	0r	2d	1a
.	.	2.a	.
2D	.	.	1r
.	.	4g	.
[2A	.	2f	.
=56	=56	=56	=56
4A]	0r	2e	0r
4G	.	.	.
2F	.	1d	.
1E	.	.	.
.	.	2c#	.
=57	=57	=57	=57
2D	1f	0d	1a
2D	.	.	.
2D	2f	.	2a
2D	2f	.	2a
=58	=58	=58	=58
1A	1e	1r	1cc
1B-	1d	2r	1dd
.	.	2f	.
=59	=59	=59	=59
2.F	0c	2f	0a
.	.	2f	.
4G	.	.	.
1A	.	1e	.
=60	=60	=60	=60
1D	1f	1d	2r
.	.	.	2a
2F	2f	[1c	2a
2F	2f	.	2a
=61	=61	=61	=61
1A	1e	1c]	1cc
1B-	1d	2r	1dd
.	.	2f	.
=62	=62	=62	=62
2.F	0c	2f	[0a
.	.	2f	.
4G	.	.	.
1A	.	1e	.
=63	=63	=63	=63
2r	2r	2d	1a_
1D	1f	2A	.
.	.	2.d	1a_
2D	2f	.	.
.	.	4d	.
=64	=64	=64	=64
2C#	2e	2e	0a]
2D	2d	2f	.
2A	2d	2e	.
2A	2c#	2e	.
=65	=65	=65	=65
2D	2d	2f	2r
2d	2a	2d	2ff
2d	2f	2a	2ff
2d	2f	2b-	2ff
=66	=66	=66	=66
1c	1.g	2.cc	1ee
.	.	4b-	.
1d	.	1a	[1dd
.	2f	.	.
=67	=67	=67	=67
0A	0e	0a	2dd]
.	.	.	4cc#
.	.	.	4b
.	.	.	1cc#
=68	=68	=68	=68
0D	2.f	2a	1dd
.	.	1d	.
.	4e	.	.
.	4f	.	2r
.	4e	.	.
.	4d	2d	[2a
.	4c	.	.
=69	=69	=69	=69
0r	1d	2f	2a]
.	.	2f	2a
.	1A	2e	2cc
.	.	2f	2cc
=70	=70	=70	=70
0r	0r	2g	2b-
.	.	2a	2cc
.	.	2b-	2dd
.	.	4a	2ee
.	.	4g	.
=71	=71	=71	=71
0r	0r	4a	4ff
.	.	4g	4ee
.	.	2.b-	4dd
.	.	.	4cc
.	.	.	4dd
.	.	4a	4cc
.	.	[2a	4cc
.	.	.	8b-
.	.	.	8a
=72	=72	=72	=72
0r	0r	2a]	1b-
.	.	2g	.
.	.	2a	2a
.	.	2f	2a
=73	=73	=73	=73
0r	0r	2g	2b-
.	.	2a	2cc
.	.	2.d	2dd
.	.	.	2b-
.	.	4e	.
=74	=74	=74	=74
1r	0r	4f	4a
.	.	4g	4b-
.	.	2.a	4cc
.	.	.	4dd
1A	.	.	2ee
.	.	4g	.
.	.	4f	[2ff
.	.	4e	.
=75	=75	=75	=75
2B-	0r	2d	2ff]
2c	.	2g	2.ee
2d	.	2f	.
.	.	.	4dd
2B-	.	4e	[2dd
.	.	4d	.
=76	=76	=76	=76
1A	1r	1e	2dd]
.	.	.	2cc#
2D	2r	2d	2dd
[2D	[2d	[2a	[2ff
=77	=77	=77	=77
2D]	2d]	2a]	2ff]
2D	2d	2a	2ff
2A	2c	2a	2ee
2B-	2d	2f	2dd
=78	=78	=78	=78
2c	2e	2e	2.cc
2A	2.f	2c	.
.	.	.	8b-
.	.	.	8a
1G	.	1g	2b-
.	8e	.	.
.	8d	.	.
.	2e	.	2b-
=79	=79	=79	=79
1F	2f	1c	0a
.	2f	.	.
2r	2f	1r	.
2F	2f	.	.
=80	=80	=80	=80
2G	1e	0r	0r
2A	.	.	.
1B-	2d	.	.
.	[2f	.	.
=81	=81	=81	=81
2A	2f]	0r	0r
1c	2e	.	.
.	2c	.	.
2B-	[2d	.	.
=82	=82	=82	=82
2G	2d]	0r	0r
2.A	4c	.	.
.	4B-	.	.
.	2c	.	.
4F	.	.	.
[2B-	[2d	.	.
=83	=83	=83	=83
4B-]	4d]	0r	0r
4A	4c	.	.
1A	4c	.	.
.	8B-	.	.
.	8A	.	.
.	1B-	.	.
2G	.	.	.
=84	=84	=84	=84
1A	2A	0r	0r
.	2c	.	.
2r	2d	.	.
2F	2f	.	.
=85	=85	=85	=85
2G	2e	0r	0r
2B-	4d	.	.
.	4e	.	.
2A	4f	.	.
.	4e	.	.
4G	[2g	.	.
4A	.	.	.
=86	=86	=86	=86
4B-	4g]	0r	0r
4A	4f	.	.
1c	2e	.	.
.	1d	.	.
2B	.	.	.
=87	=87	=87	=87
0c	2r	2r	0r
.	2e	2g	.
.	2e	2g	.
.	2e	2g	.
=88	=88	=88	=88
1r	2f	2a	1r
.	2g	2b-	.
2r	[1a	2.cc	2r
2A	.	.	2cc
.	.	4b-	.
=89	=89	=89	=89
2A	1a]	4a	2cc
.	.	4g	.
2A	.	1f	2cc
2B-	1g	.	2dd
2c	.	2e	2ee
=90	=90	=90	=90
1d	2r	2.a	1ff
.	2f	.	.
.	.	4b-	.
1c	2g	1cc	2ee
.	2a	.	2cc
=91	=91	=91	=91
0r	2f	1r	2dd
.	2e	.	2ee
.	2.d	2r	2.ff
.	.	2f	.
.	4c	.	4ee
=92	=92	=92	=92
0r	2B-	2g	2dd
.	2A	2a	2cc
.	1B-	2f	4dd
.	.	.	4cc
.	.	2d	4b-
.	.	.	4a
=93	=93	=93	=93
0r	0c	2e	2g
.	.	1f	2f
.	.	.	1g
.	.	2e	.
=94	=94	=94	=94
1F	2r	1f	0a
.	2f	.	.
2A	2e	1r	.
2A	2c	.	.
=95	=95	=95	=95
2G	2d	2r	0r
2F	2f	2cc	.
2G	2f	2b-	.
2G	2e	2g	.
=96	=96	=96	=96
1F	2f	0a	2r
.	2d	.	2ff
1r	2c	.	2ee
.	2A	.	2cc
=97	=97	=97	=97
0r	2B-	2g	2dd
.	2d	2f	2ff
.	2c	1g	2ff
.	2c	.	2ee
=98	=98	=98	=98
1F	2c	1a	2ff
.	2f	.	2cc
1B-	2f	1b-	2dd
.	2d	.	2ff
=99	=99	=99	=99
1G	2.g	1b-	2ee
.	.	.	2.dd
.	4f	.	.
2A	2e	1a	.
.	.	.	4cc
2F	2f	.	[2cc
=100	=100	=100	=100
1G	1d	2.g	2cc]
.	.	.	2b
.	.	4g	.
[1c	2r	2e	1cc
.	[2e	[2g	.
=101	=101	=101	=101
2c]	2e]	2g]	1r
2A	1f	2a	.
1B-	.	2.f	2r
.	[2d	.	2ff
.	.	4g	.
=102	=102	=102	=102
1A	4d]	1a	2ff
.	8c#	.	.
.	8B	.	.
.	2c#	.	2.ee
1D	1d	2a	.
.	.	.	4dd
.	.	2f	[2dd
=103	=103	=103	=103
1r	1A	2f	4dd]
.	.	.	8cc#
.	.	.	8b
.	.	2.e	2cc#
2.D	2r	.	1dd
.	.	4d	.
.	2f	[2d	.
4E	.	.	.
=104	=104	=104	=104
4F	2f	2d]	[0a
4G	.	.	.
2A	2.e	2c	.
2F	.	2.f	.
.	4d	.	.
2D	[2d	.	.
.	.	4d	.
=105	=105	=105	=105
1A	2d]	1e	0a]
.	2c#	.	.
1D	1d	1f#	.
=106	=106	=106	=106
2r	2r	2r	2r
1D	1d	1f	1a
2D	2d	2f	2a
=107	=107	=107	=107
2d	2.f	2d	2a
2d	.	2f	2a
.	4f	.	.
1c	1e	1g	1cc
=108	=108	=108	=108
2B-	2f	2b-	2.dd
2B-	2f	2b-	.
.	.	.	4dd
2.G	2g	2.B-	2dd
.	2d	.	2dd
4G	.	4B-	.
=109	=109	=109	=109
2F	2f	2c	[0a
1D	1f	1d	.
2C#	2e	2e	.
=110	=110	=110	=110
2D	2d	2f	1a]
2A	2c#	2e	.
[1D	1d	1f	1r
=111	=111	=111	=111
1D]	1A	2d	2r
.	.	1d	1ff
1A	1r	.	.
.	.	2c	2ee
=112	=112	=112	=112
0r	0r	2f	2dd
.	.	2g	2dd
.	.	2.a	2.cc
.	.	4a	4cc
=113	=113	=113	=113
0r	2r	2a	2cc
.	1G	1b-	2dd
.	.	.	2dd
.	2F	2a	[2ff
=114	=114	=114	=114
1r	2B-	1g	4ff]
.	.	.	8ee
.	.	.	8dd
.	2c	.	2ee
2r	2d	2f	1ff
[2D	[2f	2a	.
=115	=115	=115	=115
2D]	2f]	2b-	1r
2C	2e	1cc	.
2F	2.d	.	2r
2G	.	2b-	[2dd
.	4e	.	.
=116	=116	=116	=116
1A	2f	1a	2dd]
.	2e	.	2cc#
2.B-	2r	2.f	1dd
.	[2d	.	.
4B-	.	4d	.
=117	=117	=117	=117
1A	2d]	2a	1ee
.	2c#	2.a	.
2r	2.d	.	[1ff
.	.	4g	.
[2d	.	4f	.
.	4e	4e	.
=118	=118	=118	=118
2d]	4f	2d	2ff]
.	4g	.	.
2c#	1a	2e	2ee
2d	.	2f	1dd
2B	[2g	2g	.
=119	=119	=119	=119
0c	2g]	1a	0cc
.	1f	.	.
.	.	1g	.
.	2e	.	.
=120	=120	=120	=120
2F	0f	2a	2r
2B-	.	4d	2dd
.	.	4e	.
2B-	.	4f	2dd
.	.	4g	.
2A	.	2a	2cc
=121	=121	=121	=121
2.B-	2r	2g	2.dd
.	2d	2f	.
4A	.	.	4cc
2G	2d	2g	2b-
2A	2c	[2f	2a
=122	=122	=122	=122
2B-	2d	2f]	1g
2c	2e	2e	.
2F	1c	2f	2a
[2F	.	[2a	[2cc
=123	=123	=123	=123
2F]	2A	2a]	2cc]
2E	1c	2g	2cc
2D	.	2f	2dd
2D	2B	2d	2ff
=124	=124	=124	=124
2C	2c	0g	1ee
1c	2c	.	.
.	2G	.	1dd
2B-	2d	.	.
=125	=125	=125	=125
2A	2e	1.a	2cc
4G	2.f	.	2.dd
4F	.	.	.
1A	.	.	.
.	4e	.	4cc
.	4d	2f	[2cc
.	4c	.	.
=126	=126	=126	=126
1G	1d	1g	2cc]
.	.	.	2b
2r	2c	1g	[1cc
2c	2e	.	.
=127	=127	=127	=127
2c	2e	0r	1cc]
2A	2e	.	.
1d	1f	.	1r
=128	=128	=128	=128
2c	2e	0r	0r
2B-	2g	.	.
2A	2f	.	.
2G	2e	.	.
=129	=129	=129	=129
0F	0f	2r	2r
.	.	2a	2cc
.	.	2a	2cc
.	.	2cc	2a
=130	=130	=130	=130
0r	0r	2.b-	2.dd
.	.	4b-	4dd
.	.	2a	2cc
.	.	2g	2b-
=131	=131	=131	=131
0r	2r	2f	2a
.	2c	2e	2g
.	2.d	2.f	4f
.	.	.	4g
.	.	.	4a
.	4d	4g	4b-
=132	=132	=132	=132
1F	2c	1a	1cc
.	2f	.	.
2.G	2d	1r	1r
.	2e	.	.
4G	.	.	.
=133	=133	=133	=133
2F	1f	0r	0r
2B-	.	.	.
2G	1e	.	.
2A	.	.	.
=134	=134	=134	=134
1B-	2r	0r	0r
.	2d	.	.
2A	2c	.	.
2d	2f	.	.
=135	=135	=135	=135
2c	2e	0r	0r
2B-	2d	.	.
2A	2c	.	.
2G	[2d	.	.
=136	=136	=136	=136
2F#	4d]	0r	0r
.	4c	.	.
1G	4B-	.	.
.	4A	.	.
.	2B-	.	.
2F	[2d	.	.
=137	=137	=137	=137
1E	2d]	2r	1r
.	2c#	1g	.
1D	1d	.	2r
.	.	2f	[2dd
=138	=138	=138	=138
0r	0r	2b-	2dd]
.	.	2a	2cc
.	.	2f	2ff
.	.	2g	2ee
=139	=139	=139	=139
0r	1r	2a	2cc
.	.	2b-	2dd
.	2c	2cc	2ee
.	2d	4b-	2ff
.	.	4a	.
=140	=140	=140	=140
0r	2e	2g	2gg
.	2f	2a	4ff
.	.	.	4ee
.	2g	2b-	2dd
.	2e	2g	2ee
=141	=141	=141	=141
0r	2d	4a	2ff
.	.	4b	.
.	2c	1cc	2ee
.	1g	.	1dd
.	.	2b	.
=142	=142	=142	=142
2r	2c	2cc	2cc
2F	2f	2a	2cc
1G	1d	1g	1b-
=143	=143	=143	=143
2.F	2f	2c	0a
.	2d	2f	.
4G	.	.	.
1A	2d	2f	.
.	2c#	2e	.
=144	=144	=144	=144
2r	2d	2f	2r
2d	2d	2f	2a
2d	1A	1e	2a
2c#	.	.	2a
=145	=145	=145	=145
2d	2r	1a	4f
.	.	.	4g
2d	1f	.	4a
.	.	.	4b-
1A	.	2a	2cc
.	2e	2a	2cc
=146	=146	=146	=146
2.d	4d	4f	2.dd
.	4e	4g	.
.	4f	4a	.
4c	4g	4b-	4ee
4A	2a	2cc	2ff
4B-	.	.	.
2c	4g	2cc	[2ee
.	4f	.	.
=147	=147	=147	=147
1G	2.g	1b-	4ee]
.	.	.	4dd
.	.	.	1dd
.	4f	.	.
1A	1e	1a	.
.	.	.	2cc#
=148	=148	=148	=148
0D	0f#	0a	0dd
==	==	==	==
*-	*-	*-	*-
!!!CDT: 1525/^1526/-1594/2/2
!!!OCY: Italia
!!!AGN: Mass (Parody)
!!!AST: renaissance, vocal
!!!ASW: Chanson 1533 (Lupi or Cadéac)
!!!PWK: Masses, Book 6
!!!RNB: Cadence finals: F
!!!YOR: Le Opere Complete, v. 21, p. 52
!!!YOO: Rome, Italy: Fratelli Scalera
!!!END: 1992//
!!!EED: John Miller
!!!YEC: Copyright 2000, John Miller
!!!YEN: United States of America
!!!YEM: Rights to all derivative electronic formats reserved.
!!!YEM: Refer to licensing agreement for further details.
!!!YEM: This file must be accompanied by the licensing agreement.
!!!YEM: A copy of the licensing agreement may be found at http://www.music-cog.ohio-state.edu/HumdrumDatabases/Palestrina/license.txt
!!!EMD: converted to Humdrum by Bret Aarden
